public/aperture.svg

<svg width="1344" xmlns="http://www.w3.org/2000/svg" height="1344" id="screenshot-4f75a93e-b3d3-80a5-8006-97105f1dc225" viewBox="0 0 1344 1344" xmlns:xlink="http://www.w3.org/1999/xlink" fill="none" version="1.1"><g id="shape-4f75a93e-b3d3-80a5-8006-97105f1dc225" rx="0" ry="0"><g id="shape-4f75a93e-b3d3-80a5-8006-97104b0d7830"><g class="fills" id="fills-4f75a93e-b3d3-80a5-8006-97104b0d7830"><path d="M855.7408447265625,700.028076171875L1239.0126953125,315.94384765625C1151.88916015625,178.135986328125,1016.0811767578125,74.19921875,855.7408447265625,28.37939453125L855.7408447265625,700.028076171875Z" style="fill: rgb(30, 30, 30); fill-opacity: 1;"/></g></g><g id="shape-4f75a93e-b3d3-80a5-8006-97104b0da85c"><g class="fills" id="fills-4f75a93e-b3d3-80a5-8006-97104b0da85c"><path d="M1259.3759765625,345.2880859375L784.8231201171875,820.844970703125L1327.4384765625,820.844970703125C1338.259521484375,772.963134765625,1344,723.157470703125,1344,672.001220703125C1344,553.4072265625,1313.259765625,442.017822265625,1259.3759765625,345.2880859375Z" style="fill: rgb(30, 30, 30); fill-opacity: 1;"/></g></g><g id="shape-4f75a93e-b3d3-80a5-8006-97104b0da85d"><g class="fills" id="fills-4f75a93e-b3d3-80a5-8006-97104b0da85d"><path d="M642.9874267578125,856.12646484375L1023.23876953125,1243.415771484375C1164.043701171875,1156.427978515625,1270.349853515625,1018.918212890625,1316.82861328125,856.12646484375L642.9874267578125,856.12646484375Z" style="fill: rgb(30, 30, 30); fill-opacity: 1;"/></g></g><g id="shape-4f75a93e-b3d3-80a5-8006-97104b0da85e"><g class="fills" id="fills-4f75a93e-b3d3-80a5-8006-97104b0da85e"><path d="M16.56103515625,525.02783203125C5.73876953125,572.90966796875,1.1368683772161603e-13,622.71533203125,1.1368683772161603e-13,673.869384765625C1.1368683772161603e-13,793.174072265625,31.1082763671875,905.195068359375,85.597900390625,1002.3212890625L559.341552734375,525.02783203125L16.56103515625,525.02783203125Z" style="fill: rgb(30, 30, 30); fill-opacity: 1;"/></g></g><g id="shape-4f75a93e-b3d3-80a5-8006-97104b0da85f"><g class="fills" id="fills-4f75a93e-b3d3-80a5-8006-97104b0da85f"><path d="M695.740478515625,488.658935546875L312.922119140625,104.059326171875C174.2586669921875,191.1767578125,69.6502685546875,327.536865234375,23.63946533203125,488.658935546875L695.740478515625,488.658935546875Z" style="fill: rgb(30, 30, 30); fill-opacity: 1;"/></g></g><g id="shape-4f75a93e-b3d3-80a5-8006-97104b0da860"><g class="fills" id="fills-4f75a93e-b3d3-80a5-8006-97104b0da860"><path d="M520.063720703125,785.176513671875L520.063720703125,1327.4306640625C567.9237060546875,1338.25439453125,617.7080078125,1344,668.8394775390625,1344C784.7906494140625,1344,893.8858642578125,1314.613037109375,989.076171875,1262.876953125L520.063720703125,785.176513671875Z" style="fill: rgb(30, 30, 30); fill-opacity: 1;"/></g></g><g id="shape-4f75a93e-b3d3-80a5-8006-97104b0dd14d"><g class="fills" id="fills-4f75a93e-b3d3-80a5-8006-97104b0dd14d"><path d="M486.23095703125,648.007568359375L104.0126953125,1033.087646484375C191.18017578125,1170.05908203125,326.5484619140625,1273.3330078125,486.23095703125,1318.964111328125L486.23095703125,648.007568359375Z" style="fill: rgb(30, 30, 30); fill-opacity: 1;"/></g></g><g id="shape-4f75a93e-b3d3-80a5-8006-97104b0dd14e"><g class="fills" id="fills-4f75a93e-b3d3-80a5-8006-97104b0dd14e"><path d="M818.57470703125,559.248779296875L818.57470703125,16.5693359375C770.714111328125,5.74560546875,720.9298095703125,0,669.7984619140625,0C552.03271484375,0,441.3731689453125,30.3525390625,345.1331787109375,83.6025390625L818.57470703125,559.248779296875Z" style="fill: rgb(30, 30, 30); fill-opacity: 1;"/></g></g></g></svg>

<svg width="1344" height="1344" viewBox="0 0 1344 1344" xmlns="http://www.w3.org/2000/svg"><g fill="var(--background-secondary)"><path d="M855.74 700.03L1239.01 315.94c-87.12-137.8-222.93-241.74-383.27-287.56L855.74 700.03z"/><path d="M1259.38 345.29L784.82 820.84h542.62c10.82-47.88 16.56-97.69 16.56-148.84 0-118.6-30.74-230-84.62-326.71z"/><path d="M642.99 856.13l380.25 387.28c140.8-87 247.1-224.5 293.59-387.28H642.99z"/><path d="M16.56 525.03c-10.82 47.88-16.56 97.68-16.56 148.84 0 119.3 31.11 231.32 85.6 328.45l473.74-477.29H16.56z"/><path d="M695.74 488.66L312.92 104.06C174.26 191.18 69.65 327.54 23.64 488.66h672.1z"/><path d="M520.06 785.18v542.25c47.86 10.83 97.65 16.56 148.78 16.56 115.95 0 225.04-29.4 320.23-81.13L520.06 785.18z"/><path d="M486.23 648.01L104.01 1033.09c87.17 136.97 222.54 240.24 382.22 285.87V648.01z"/><path d="M818.57 559.25V16.57C770.71 5.75 720.93 0 669.8 0 552.03 0 441.37 30.35 345.13 83.6L818.57 559.25z"/></g></svg>
